assets/Waving hand/Medium-Dark/Flat/waving_hand_flat_medium-dark.svg

<svg width="32" height="32" viewBox="0 0 32 32" fill="none" xmlns="http://www.w3.org/2000/svg">
<path d="M20.5931 7.2519C21.8092 9.93341 23.3016 13.2241 24.4219 14.5312C24.6406 14.0234 24.6172 13.1719 24.8672 11.0938C25.0929 9.21715 26.6406 9.03906 27.3047 9.17188C28.7734 9.47813 29.2209 10.9668 29.1719 11.5156C29.0938 12.3906 29.09 12.3609 28.9297 14.4766C28.6953 17.5703 29.8906 19.9062 30 22.5547C30 27.5469 25.625 30 22.5625 30C20.1125 30 17.6615 28.4323 16.7422 27.6484L12.1484 23.4531C11.5859 23.0156 10.1957 21.5721 9.58584 20.7422C7.92334 18.4797 10.3281 16.9219 11.6796 17.3125C11.5733 17.2312 10.9323 16.1901 10.625 15.6797C9.79999 14.0234 10.625 12.9202 11.2344 12.6172C12.6172 11.9297 13.6328 12.7031 13.9531 13.125C13.8307 12.9167 13.4469 12.075 12.8281 10.5312C12.2094 8.9875 13.2057 8.03385 13.7813 7.75C15.0313 7.17188 16.2188 7.90625 16.5156 8.5625C16.661 8.88386 17.4452 10.6013 17.7866 11.3588C17.5293 10.7307 17.0632 9.48293 16.8984 8.90625C16.5703 7.54688 17.3593 6.6146 17.8593 6.37502C18.5546 6.0419 20.0048 5.95465 20.5781 7.21877L20.5931 7.2519Z" fill="#966661"/>
<path d="M17.7824 6.91527C17.8877 6.57456 18.0333 6.36931 18.143 6.2666C18.0393 6.29782 17.9437 6.33464 17.8593 6.37508C17.3593 6.61467 16.5703 7.54694 16.8984 8.90631C17.0632 9.483 17.5293 10.7308 17.7866 11.3589L17.663 11.0855C18.2274 12.3801 18.9301 13.7747 19.4597 14.6754C19.5996 14.9134 19.9061 14.9929 20.1441 14.8529C20.3822 14.713 20.4617 14.4065 20.3217 14.1685C19.4622 12.7068 18.1535 9.93335 17.7794 8.55646C17.6092 7.93012 17.6474 7.3523 17.7824 6.91527Z" fill="#764C49"/>
<path d="M10.625 15.6797C10.8573 16.0657 11.2804 16.7549 11.5189 17.1034C11.835 17.4836 12.1812 17.8479 12.5313 18.1945C12.9306 18.5898 13.3456 18.972 13.7387 19.334L13.7719 19.3646C14.1779 19.7385 14.5573 20.0888 14.8865 20.4219C15.0806 20.6183 15.3972 20.6201 15.5936 20.426C15.79 20.2319 15.7918 19.9153 15.5977 19.7189C15.2491 19.3662 14.852 18.9998 14.4494 18.6291L14.4212 18.6031C14.0246 18.2378 13.6211 17.8662 13.2348 17.4838C12.4368 16.6938 11.7554 15.8986 11.3929 15.0984C11.1364 14.532 11.0734 13.8693 11.1434 13.3212C11.1783 13.0483 11.2437 12.824 11.3191 12.6668C11.3444 12.614 11.3677 12.575 11.3875 12.5463C11.337 12.568 11.2859 12.5916 11.2343 12.6172C10.625 12.9202 9.79997 14.0235 10.625 15.6797Z" fill="#764C49"/>
<path d="M13.8826 7.70599C13.7764 7.77807 13.6296 7.95221 13.5369 8.29044C13.4325 8.67147 13.4163 9.20721 13.5918 9.85334C13.8462 10.7893 14.4836 12.0447 15.2131 13.2747C15.9361 14.4936 16.7239 15.6453 17.2474 16.3612C17.4104 16.5841 17.3618 16.8969 17.1389 17.0599C16.916 17.2229 16.6031 17.1743 16.4401 16.9514C15.9011 16.2142 15.095 15.0357 14.353 13.7848C14.1539 13.4492 13.9575 13.1051 13.7711 12.7605C13.5771 12.3436 13.2598 11.6083 12.8281 10.5313C12.2094 8.98756 13.2057 8.03392 13.7813 7.75006C13.8151 7.73442 13.8489 7.71974 13.8826 7.70599Z" fill="#764C49"/>
<path d="M24.6757 12.9438C24.6029 13.7382 24.5614 14.1917 24.4308 14.5103C24.4231 14.6099 24.4158 14.7009 24.4083 14.7829C24.3833 15.0579 24.586 15.3011 24.861 15.3261C25.136 15.3511 25.3792 15.1485 25.4042 14.8735C25.4191 14.7096 25.4332 14.52 25.449 14.3055C25.5077 13.5129 25.5914 12.3816 25.8365 10.9601C25.9384 10.3692 26.2029 9.85762 26.5065 9.52422C26.7405 9.26719 26.943 9.16764 27.0821 9.14288C26.3453 9.0915 25.0705 9.40422 24.8672 11.0938C24.7746 11.864 24.7195 12.4656 24.6757 12.9438Z" fill="#764C49"/>
<path d="M24.0376 7.55672C24.0394 7.83286 24.2647 8.05525 24.5409 8.05345C24.817 8.05164 25.0394 7.82632 25.0376 7.55019C25.0226 5.25547 23.2781 2.06157 19.5286 2.08608C19.2525 2.08788 19.0301 2.3132 19.0319 2.58934C19.0337 2.86547 19.259 3.08786 19.5351 3.08606C22.5668 3.06624 24.025 5.63278 24.0376 7.55672Z" fill="#5092FF"/>
<path d="M22.8772 9.98625C22.601 9.98805 22.3757 9.76566 22.3739 9.48952C22.368 8.58042 21.993 7.36934 21.1968 6.39496C20.4132 5.43592 19.2295 4.7131 17.577 4.7239C17.3009 4.7257 17.0756 4.50331 17.0738 4.22718C17.072 3.95104 17.2944 3.72573 17.5705 3.72392C19.5585 3.71093 21.0182 4.59586 21.9712 5.76224C22.9117 6.91327 23.3665 8.34526 23.3739 9.48299C23.3757 9.75912 23.1533 9.98444 22.8772 9.98625Z" fill="#5092FF"/>
<path d="M4.875 17.6093C4.875 17.3332 4.65114 17.1093 4.375 17.1093C4.09886 17.1093 3.875 17.3332 3.875 17.6093C3.875 18.7471 4.32041 20.182 5.25333 21.3391C6.19868 22.5117 7.65254 23.4062 9.64062 23.4062C9.91677 23.4062 10.1406 23.1823 10.1406 22.9062C10.1406 22.63 9.91677 22.4062 9.64062 22.4062C7.98808 22.4062 6.80913 21.6756 6.03183 20.7115C5.24209 19.7319 4.875 18.5184 4.875 17.6093Z" fill="#5092FF"/>
<path d="M3.19873 19.5312C3.19873 19.255 2.97487 19.0312 2.69873 19.0312C2.42259 19.0312 2.19873 19.255 2.19873 19.5312C2.19873 21.8259 3.92235 25.0312 7.67188 25.0312C7.94802 25.0312 8.17188 24.8073 8.17188 24.5312C8.17188 24.255 7.94802 24.0312 7.67188 24.0312C4.64015 24.0312 3.19873 21.4552 3.19873 19.5312Z" fill="#5092FF"/>
</svg>

<svg xmlns="http://www.w3.org/2000/svg" width="32" height="32" fill="none"><path fill="#966661" d="M20.593 7.252c1.216 2.681 2.709 5.972 3.829 7.28.219-.509.195-1.36.445-3.438.226-1.877 1.774-2.055 2.438-1.922 1.468.306 1.916 1.795 1.867 2.344-.078.875-.082.845-.242 2.96-.235 3.094.96 5.43 1.07 8.079C30 27.547 25.625 30 22.562 30c-2.45 0-4.9-1.568-5.82-2.352l-4.594-4.195c-.562-.437-1.952-1.88-2.562-2.71-1.663-2.263.742-3.821 2.094-3.43-.107-.082-.748-1.123-1.055-1.633-.825-1.657 0-2.76.61-3.063 1.382-.687 2.398.086 2.718.508-.122-.208-.506-1.05-1.125-2.594-.619-1.543.378-2.497.953-2.781 1.25-.578 2.438.156 2.735.813.145.32.93 2.038 1.27 2.796-.257-.628-.723-1.876-.888-2.453-.328-1.36.461-2.291.961-2.531.696-.333 2.146-.42 2.72.844l.014.033Z"/><path fill="#764C49" d="M17.782 6.915c.106-.34.251-.546.361-.648-.104.03-.2.068-.284.108-.5.24-1.289 1.172-.96 2.531.164.577.63 1.825.888 2.453l-.124-.274c.564 1.295 1.267 2.69 1.797 3.59a.5.5 0 1 0 .862-.507c-.86-1.461-2.168-4.235-2.543-5.612a2.975 2.975 0 0 1 .003-1.64ZM10.625 15.68c.232.386.655 1.075.894 1.423.316.38.662.745 1.012 1.091.4.396.815.778 1.208 1.14l.033.03c.406.374.785.725 1.114 1.058a.5.5 0 0 0 .712-.703c-.349-.353-.746-.72-1.149-1.09l-.028-.026c-.396-.365-.8-.737-1.186-1.12-.798-.79-1.48-1.584-1.842-2.385-.257-.566-.32-1.229-.25-1.777a2.2 2.2 0 0 1 .176-.654.886.886 0 0 1 .068-.12c-.05.021-.101.045-.153.07-.609.303-1.434 1.406-.609 3.063ZM13.883 7.706c-.107.072-.253.246-.346.584-.105.381-.12.917.055 1.563.254.936.892 2.192 1.621 3.422a40.864 40.864 0 0 0 2.034 3.086.5.5 0 1 1-.807.59 41.89 41.89 0 0 1-2.087-3.166c-.2-.336-.396-.68-.582-1.024a48.651 48.651 0 0 1-.943-2.23c-.619-1.543.378-2.497.953-2.78.034-.017.068-.031.102-.045ZM24.676 12.944c-.073.794-.115 1.248-.245 1.566-.008.1-.015.19-.023.273a.5.5 0 0 0 .996.09c.015-.163.03-.353.045-.567.059-.793.142-1.924.387-3.346.102-.59.367-1.102.67-1.436.235-.257.437-.356.576-.381-.737-.052-2.012.261-2.215 1.95-.092.771-.148 1.373-.191 1.85Z"/><path fill="#5092FF" d="M24.038 7.557a.5.5 0 1 0 1-.007c-.015-2.295-1.76-5.488-5.51-5.464a.5.5 0 0 0 .007 1c3.032-.02 4.49 2.547 4.503 4.47Z"/><path fill="#5092FF" d="M22.877 9.986a.5.5 0 0 1-.503-.496c-.006-.91-.381-2.12-1.177-3.095-.784-.96-1.967-1.682-3.62-1.671a.5.5 0 0 1-.007-1c1.988-.013 3.448.872 4.401 2.038.94 1.151 1.395 2.583 1.403 3.721a.5.5 0 0 1-.497.503ZM4.875 17.61a.5.5 0 0 0-1 0c0 1.137.445 2.572 1.378 3.73.946 1.172 2.4 2.066 4.388 2.066a.5.5 0 0 0 0-1c-1.653 0-2.832-.73-3.61-1.694-.789-.98-1.156-2.194-1.156-3.103Z"/><path fill="#5092FF" d="M3.199 19.531a.5.5 0 1 0-1 0c0 2.295 1.723 5.5 5.473 5.5a.5.5 0 0 0 0-1c-3.032 0-4.473-2.576-4.473-4.5Z"/></svg>
